public/assets/img/material-icons/rule.svg

<svg height="24" viewBox="0 0 24 24" width="24" xmlns="http://www.w3.org/2000/svg"><path d="m16.54 11-3.54-3.54 1.41-1.41 2.12 2.12 4.24-4.24 1.41 1.41zm-5.54-4h-9v2h9zm10 6.41-1.41-1.41-2.59 2.59-2.59-2.59-1.41 1.41 2.59 2.59-2.59 2.59 1.41 1.41 2.59-2.59 2.59 2.59 1.41-1.41-2.59-2.59zm-10 1.59h-9v2h9z"/></svg>

<svg xmlns="http://www.w3.org/2000/svg" width="24" height="24" viewBox="0 0 24 24"><path d="M16.54 11 13 7.46l1.41-1.41 2.12 2.12 4.24-4.24 1.41 1.41L16.54 11zM11 7H2v2h9V7zm10 6.41L19.59 12 17 14.59 14.41 12 13 13.41 15.59 16 13 18.59 14.41 20 17 17.41 19.59 20 21 18.59 18.41 16 21 13.41zM11 15H2v2h9v-2z"/></svg>
